!!!COM:	Martini, Johannes
!!!CDT:	~1440///-~1497//
!!!OTL:	Fortuna d'un gran tempo
!!!AGN:	Song; Chanson
!!!SCT:	Mar3007
!!!SCA:	Mar3007
!!!voices:	4
**kern	**kern	**kern	**kern
*staff4	*staff3	*staff2	*staff1
*Ivox	*Ivox	*Ivox	*Ivox
*I"Bassus	*I"Tenor	*I"Contratenor	*I"Cantus
*I'B	*I'T	*I'Ct	*I'Cn
*clefF4	*clefGv2	*clefGv2	*clefG2
*k[b-]	*k[b-]	*k[b-]	*k[b-]
*M3/1	*M3/1	*M3/1	*M3/1
*met(C|3)	*met(C|3)	*met(C|3)	*met(C|3)
=1-	=1-	=1-	=1-
0.r	0.r	1r	0.r
.	.	1r	.
.	.	1d	.
=2	=2	=2	=2
1r	0.r	1.d	0.r
1r	.	.	.
.	.	2c\	.
1D	.	2B-\	.
.	.	2A/	.
=3	=3	=3	=3
0D	0.r	1B-	0.r
.	.	2B-\	.
.	.	1A	.
1C	.	.	.
.	.	2G/	.
=4	=4	=4	=4
0BB-	0.r	1.G	0.r
.	.	4F#i/	.
.	.	4E/	.
1AA	.	1F#i	.
=5	=5	=5	=5
0GG	0.r	0G	1r
.	.	.	1r
1GG	.	1G	1dd
=6	=6	=6	=6
1.BB-	1r	1D	1.dd
.	1r	1E	.
2C/	.	.	2cc\
1D	1d	1F	2b-\
.	.	.	2a/
=7	=7	=7	=7
0GG	0d	0G	0b-
1F	1c	1A	1a
=8	=8	=8	=8
1G	0B-	1B-	1.g
0D	.	1.d	.
.	.	.	4f#i/
.	.	.	4e/
.	1A	.	1f#i
.	.	2c\	.
=9	=9	=9	=9
0GG	0G	1.B-	1g
.	.	.	1b-
.	.	2c\	.
1D	1A	[1d	1a
=10	=10	=10	=10
1G	1B-	2d\]	1g
.	.	2e\	.
1F	1A	1f	1.a
1G	1B-	1d	.
.	.	.	2g/
=11	=11	=11	=11
1C	1c	1e	0g
0D	0A	0d	.
.	.	.	1f#i
=12	=12	=12	=12
0E-i	0G	0B-	0g
1E-i	1r	1c	1r
=13	=13	=13	=13
0D	0.r	1.d	0a
.	.	2e\	.
1D	.	1f	1a
=14	=14	=14	=14
0F	0.r	1c	0a
.	.	0d	.
1G	.	.	1b-
=15	=15	=15	=15
2A\	1A	0c	0cc
2G\	.	.	.
2F\	1A	.	.
2E\	.	.	.
1D	1A	[1f	1dd
=16	=16	=16	=16
0F	0A	1f]	1.cc
.	.	1c	.
.	.	.	2b-\
1F	1B-	1d	1a
=17	=17	=17	=17
1C	1c	1e	0g
1G	1B-	2d\	.
.	.	2e\	.
1D	1A	2f\	1r
.	.	2d\	.
=18	=18	=18	=18
1E	1G	0g	1r
0D	0A	.	0a
.	.	1f#i	.
=19	=19	=19	=19
0GG	0G	0g	1.b-
.	.	.	2a/
1GG	1r	1d	1g
=20	=20	=20	=20
0BB-	0.r	0d	1f
.	.	.	1b-
1AA	.	1c	1cc
=21	=21	=21	=21
0GG	0.r	0B-	0dd
1F	.	1A	1cc
=22	=22	=22	=22
1G	0.r	0G	0b-
1E	.	.	.
1F	.	1A	1a
=23	=23	=23	=23
1G	0.r	1B-	1g
1D	.	1A	1f
1G	.	1B-	1g
=24	=24	=24	=24
1.F	0.r	1c	1.a
.	.	0A	.
2E\	.	.	2e/
1D	.	.	1f#i
=25	=25	=25	=25
0GG	1r	0G	0g
.	1r	.	.
1r	1d	1D	1r
=26	=26	=26	=26
0.r	0d	1.D	0.r
.	.	2E/	.
.	1c	1F	.
=27	=27	=27	=27
0.r	0B-	1G	0.r
.	.	1B-	.
.	1A	1c	.
=28	=28	=28	=28
0.r	0G	1.d	0.r
.	.	2B-\	.
.	1A	2c\	.
.	.	2B-\	.
=29	=29	=29	=29
0.r	1B-	1G	0dd
.	1A	1F	.
.	1B-	1G	1dd
=30	=30	=30	=30
0.r	1c	1A	0cc
.	0A	1.F	.
.	.	.	1a
.	.	2E/	.
=31	=31	=31	=31
1r	0G	0G	0b-
1r	.	.	.
1A	1r	1F	1a
=32	=32	=32	=32
0A	0.r	0D	1.f
.	.	.	2d/
1G	.	1r	1e
=33	=33	=33	=33
0F	0.r	2A/	0d
.	.	2B-\	.
.	.	2c\	.
.	.	2d\	.
1E	.	1e	1c#i
=34	=34	=34	=34
0D	1A	0f	0d
.	1A	.	.
1E	1A	1e	1r
=35	=35	=35	=35
2F\	0A	0c	0a
2E\	.	.	.
1F	.	.	.
1G	1B-	1B-	1g
=36	=36	=36	=36
1E	1c	1G	1.g
1D	1B-	1d	.
.	.	.	4f/
.	.	.	4e/
1r	1A	1c	1f
=37	=37	=37	=37
0.r	1G	0d	0g
.	0A	.	.
.	.	1c	1f#i
=38	=38	=38	=38
0E-i	0G	1B-	1g
.	.	1c	1r
1E-i	1r	1B-	1g
=39	=39	=39	=39
0E-i	0.r	1G	0g
.	.	1.g	.
1F	.	.	1a
.	.	2f\	.
=40	=40	=40	=40
1G	0.r	1e	1r
1F	.	1d	1a
1E	.	1c	1cc
=41	=41	=41	=41
1D	0.r	1.d	1b-
0E-i	.	.	0g
.	.	2c\	.
.	.	2c\	.
.	.	2B-\	.
=42	=42	=42	=42
0D	0.r	0d	1.f
.	.	.	2g/
1F	.	1c	1a
=43	=43	=43	=43
1G	0.r	0B-	0d
1GG	.	.	.
1AA	.	1A	1c
=44	=44	=44	=44
1BB-	1r	0G	1B-
1C	1r	.	0A
1D	1d	1F#i	.
=45	=45	=45	=45
0GG	0d	1G	0G
.	.	1B-	.
1AA	1c	1A	1r
=46	=46	=46	=46
1.BB-	0B-	1F	1.d
.	.	1D	.
2C/	.	.	2e/
1D	1A	[1d	1f
=47	=47	=47	=47
0GG	0G	1d]	1g
.	.	1g	1b-
1r	1A	1e	1cc
=48	=48	=48	=48
1G	1B-	0d	1.dd
1F	1A	.	.
.	.	.	2cc\
1G	1B-	1g	1b-
=49	=49	=49	=49
0A	1c	1e	0a
.	0A	1.f	.
1F	.	.	1cc
.	.	2e\	.
=50	=50	=50	=50
1G	0G	0d	1.b-
0E-i	.	.	.
.	.	.	2a/
.	1r	1c	1g
=51	=51	=51	=51
1D	0.r	0d	1f
1.G	.	.	1.b-
.	.	1d	.
2D\	.	.	2a/
=52	=52	=52	=52
1F	0.r	1c	0a
0G	.	0B-	.
.	.	.	1g
=53	=53	=53	=53
0D	1A	0A	0a
.	1A	.	.
1C	1A	1r	1e
=54	=54	=54	=54
1.D	0A	0.r	0f
2C/	.	.	.
1BB-	1B-	.	1g
=55	=55	=55	=55
1AA	1c	0e	1a
1GG	1B-	.	1b-
1AA	1A	1e	1cc
=56	=56	=56	=56
0C	1G	0e	1g
.	0A	.	1r
1D	.	1f	1r
=57	=57	=57	=57
1E	0G	1g	1b-
1F	.	1f	1a
1G	1r	1e	1b-
=58	=58	=58	=58
1B-	0.r	1d	0dd
0A	.	0e	.
.	.	.	1cc#i
=59	=59	=59	=59
1D	0.r	1d	0.dd
1r	.	1.d	.
1D	.	.	.
.	.	2c\	.
=60	=60	=60	=60
0D	0.r	2B-\	0.r
.	.	2A/	.
.	.	1B-	.
1C	.	1A	.
=61	=61	=61	=61
0BB-	0.r	1.G	0.r
.	.	4F#i/	.
.	.	4E/	.
1AA	.	1F#i	.
=62	=62	=62	=62
0.GG	0.r	0.G	1r
.	.	.	1r
.	.	.	1dd
=63	=63	=63	=63
0G	1r	0B-	1.dd
.	1r	.	.
.	.	.	2cc\
1G	1d	1G	2b-\
.	.	.	2a/
=64	=64	=64	=64
1.G	0d	0g	0b-
2D\	.	.	.
1F	1c	1f	1a
=65	=65	=65	=65
1G	0B-	0d	1.g
0D	.	.	.
.	.	.	4f#i/
.	.	.	4e/
.	1A	1d	1f#i
=66	=66	=66	=66
0E-i	0G	1B-	0g
.	.	1c	.
1D	1A	1d	1f
=67	=67	=67	=67
0D	1B-	1.f	0d
.	1A	.	.
.	.	2e\	.
1G	1B-	1d	1r
=68	=68	=68	=68
1C	1c	1.g	0.r
0D	0A	.	.
.	.	4f#i\	.
.	.	4e\	.
.	.	1f#i	.
=69	=69	=69	=69
0GG	0G	1.g	0b-
.	.	2f\	.
1G	1r	2e\	1b-
.	.	2d\	.
=70	=70	=70	=70
0A	0.r	1f	1.cc
.	.	2d\	.
.	.	1e	2a/
1G	.	.	1b-
.	.	2d\	.
=71	=71	=71	=71
1F	0.r	0d	1a
0E	.	.	0g
.	.	1c#i	.
=72	=72	=72	=72
0.D	1A	0d	0f
.	1A	.	.
.	1A	1d	1r
=73	=73	=73	=73
0F	0A	1c	0cc
.	.	1f	.
1G	1B-	1e	1b-
=74	=74	=74	=74
1F	1c	1f	1a
1G	1B-	1e	1g
1D	1A	1d	1f
=75	=75	=75	=75
1E	1G	1c	1.g
0D	0A	0d	.
.	.	.	4f#i/
.	.	.	4e/
.	.	.	1f#i
=76	=76	=76	=76
0.GGl	0.Gl	0.B-l	0.gl
==	==	==	==
*-	*-	*-	*-
!!!RDF**kern: l=long note in original notation
!!!RDF**kern: i=editorial accidental
!!!ENC:	Chris Gage 10-30-2014
!!!END:	2015/03/01/
!!!EED:	Jesse Rodin
!!!EEV:	2015/03/05/
!!!ONB:	Translated from MusicXML and edited on 2015/03/05/ by Craig Sapp
!!muse2ps: C^@{COM}^i2I150v85,85,85,150Q16
